X:657
%%etbk:tnset id:401,pos:3,rep:3x,ant:
%%etbk:wsite https://thesession.org/tunes/165
%%etbk:video src:ytube,cde:R9NrcpCEbdo,desc:
%%etbk:video src:ytube,cde:MCfq0xpDQDc,desc:second tune
%%etbk:color #ffe6e6
%%etbk:pldat 2016-09-17T14:22,2016-09-15T18:05,2016-09-13T16:56,2016-09-11T15:25,2016-09-10T15:26,2016-09-07T17:11,2016-09-06T17:12,2016-09-04T10:56,2016-09-03T10:40,2016-08-21T12:03,2016-08-21T11:53,2016-08-06T13:41,2016-07-29T17:11,2016-07-24T16:42,2016-06-14T17:58,2016-05-25T17:19,2016-05-16T16:21,2015-07-07T17:17,2015-06-04T18:01,2015-04-26T20:32,2015-04-06T15:17,2015-03-31T17:48
T: The Merry Sisters
Z: Piano Box Version by Martin Fleischmann
H: Created 2015-03-29 /  Last Modified 2016-08-06
R: reel
M: 4/4
L: 1/8
K: Edor
FA|:!3!BE E2 !3!B!5!d!4!c!2!A|!3!BE E2 !5!d!2!A !1!FA|!3!BE E2 Bdc!2!A|!5!dD D2 !4!ADF!4!A|
!5!BE E2 !3!B!5!d!4!c!2!A|BE E2 dA FA|BE E2 BdcA|dD D2 A2 (3FGA||
|:!2!B3c d2 cd|Beed B!1!A !2!FA|Beec d2 cd|B{d}BAB dAFA|
Beec d2 cd|!2!B!1!def !4!g2fg|!5!afge !3!fde!1!d|!2!BBBc dAFD||
E!5!dcd !3!BdAd | !3!BE~E3 !3!BA!1!FA | !3!BdcA BABc | dD~D2 ADF!4!A |
!3!Bdcd BdAd | BE!1!~E2 !2!E!1!D!2!C!4!E | !1!D2!2!F!3!A !5!d!3!f!2!e!5!a | !3!fd!5!ec decd ||
"Last time" fdec d4 ||


